Origami/48x48/apps/distributor-logo-freebsd.svg

<svg width="48" height="48" version="1.1" viewBox="0 0 48 48" xmlns="http://www.w3.org/2000/svg">
 <path d="m10.650391 5.0292919c-1.731015 0.1441261-4.3508656 1.3973662-5.5542817 3.3046875-1.5033604 2.3827266-1.1481112 3.5779626-1.0742186 4.7011716 0.073892 1.12321 0.2933837 2.122389 0.6441249 3.158203 0.4289305 1.266723 0.9684724 2.427544 1.5507813 3.529297-0.7160465 2.017122-1.211359 4.10295-1.2167969 6.261719-6.8e-6 0.0052-6.8e-6 0.01042 0 0.01563 0 10.422342 8.577658 19 19 19s19-8.577658 19-19v-0.01172c-0.0043-2.160179-0.499004-4.248918-1.214844-6.267578 0.581875-1.100818 1.120032-2.261018 1.548828-3.527344 0.350743-1.035816 0.570639-2.034993 0.644532-3.158203 0.07389-1.12321 0.429141-2.318446-1.074219-4.7011716-0.80548-1.2766252-2.286201-2.4248426-3.65625-2.9043009s-2.518543-0.4737193-3.453125-0.3886719c-0.607261 0.0552673-1.164465 0.1571721-1.705078 0.2871094-1.994035 0.4792469-3.752374 1.3274417-5.484375 2.3046875-1.502834-0.3792693-3.033478-0.6294969-4.591797-0.6328125-0.01042-2.71e-5 -0.02083-2.71e-5 -0.03125 0-1.555581 0.00453-3.085864 0.253667-4.585938 0.6328125-1.733967-0.9777801-3.493707-1.8257808-5.486328-2.3046875-0.540613-0.1299373-1.097817-0.2318421-1.705078-0.2871094-0.440523-0.0400877-0.943392-0.0626136-1.554687-0.0117187z" style="opacity:.2"/>
 <path d="m10.650391 4.0292969c-1.731015 0.1441261-4.3508656 1.3973662-5.5542817 3.3046875-1.5033604 2.3827265-1.1481112 3.5779626-1.0742186 4.7011716 0.073892 1.12321 0.2933837 2.122389 0.6441249 3.158203 0.4289305 1.266723 0.9684724 2.427544 1.5507813 3.529297-0.7160465 2.017122-1.211359 4.10295-1.2167969 6.261719-6.8e-6 0.0052-6.8e-6 0.01042 0 0.01563 0 10.422342 8.577658 19 19 19s19-8.577658 19-19v-0.01172c-0.0043-2.160179-0.499004-4.248918-1.214844-6.267578 0.581875-1.100818 1.120032-2.261018 1.548828-3.527344 0.350743-1.035816 0.570639-2.034993 0.644532-3.158203 0.07389-1.12321 0.429141-2.3184464-1.074219-4.7011716-0.80548-1.2766252-2.286201-2.4248426-3.65625-2.9043009s-2.518543-0.4737193-3.453125-0.3886719c-0.607261 0.0552673-1.164465 0.1571721-1.705078 0.2871094-1.994035 0.4792469-3.752374 1.3274417-5.484375 2.3046875-1.502834-0.3792693-3.033478-0.6294969-4.591797-0.6328125-0.01042-2.71e-5 -0.02083-2.71e-5 -0.03125 0-1.555581 0.00453-3.085864 0.253667-4.585938 0.6328125-1.733967-0.9777801-3.493707-1.8257808-5.486328-2.3046875-0.540613-0.1299373-1.097817-0.2318421-1.705078-0.2871094-0.440523-0.0400877-0.943392-0.0626136-1.554687-0.0117187z" style="fill:#fb5140"/>
 <path d="m11.148438 11.007807c-0.463374 0.03858-0.780406 0.213355-0.978516 0.527344-0.2823091 0.447441-0.2067341 1.593189 0.179687 2.734375 0.353389 1.043634 1.162443 2.660828 1.958985 4.050781 1.335295-2.026121 3.182008-3.680085 5.355468-4.789062-1.881054-1.137556-3.831288-2.050699-5.15625-2.369141-0.313993-0.07547-0.595073-0.123674-0.845703-0.146484-0.187973-0.01711-0.359215-0.02067-0.513671-0.0078zm25.703124 0c-0.154457-0.01286-0.325698-0.0093-0.513671 0.0078-0.25063 0.02281-0.531709 0.07101-0.845703 0.146484-1.596363 0.38367-4.108627 1.611664-6.302735 3.082032-1.116692 0.748346-1.189782 0.845065-1.189453 1.603515 2.64e-4 0.541904 0.04296 0.721957 0.316406 1.289063 0.757254 1.57048 2.450262 3.175888 3.898438 3.695312 0.642446 0.230429 1.465099 0.222949 1.769531-0.01563 0.764527-0.599135 3.010387-4.610661 3.666016-6.546875 0.386422-1.141186 0.461996-2.286934 0.179687-2.734375-0.19811-0.313989-0.515142-0.488763-0.978516-0.527344zm-12.851562 1.992188a13 13 0 0 0 -13 13 13 13 0 0 0 13 13 13 13 0 0 0 13 -13 13 13 0 0 0 -1.332031 -5.712891c-0.01568 0.02368-0.03328 0.0588-0.04883 0.08203-0.349626 0.522297-0.587224 0.897119-1.017579 1.234375-0.492499 0.385954-0.921827 0.392584-1.367187 0.396484s-0.905419-0.06444-1.357422-0.226562c-1.831185-0.656801-3.56625-2.345668-4.460937-4.201172-0.29126-0.604052-0.415724-1.127237-0.416014-1.722655-1.79e-4 -0.411543 0.04592-0.961472 0.373047-1.402343 0.228889-0.308473 0.505764-0.51592 0.828125-0.736328a13 13 0 0 0 -4.201172 -0.710938z" style="opacity:.2"/>
 <path d="m11.148438 10.007812c-0.463374 0.038582-0.780406 0.213355-0.978516 0.527344-0.2823091 0.447441-0.2067341 1.593189 0.179687 2.734375 0.353389 1.043634 1.162443 2.660828 1.958985 4.050781 1.335295-2.026121 3.182008-3.680085 5.355468-4.789062-1.881054-1.137556-3.831288-2.050699-5.15625-2.369141-0.313993-0.075469-0.595073-0.123674-0.845703-0.146484-0.187973-0.0171056-0.359215-0.0206722-0.513671-0.007813zm25.703124 0c-0.154457-0.0128597-0.325698-0.0092926-0.513671 0.007813-0.25063 0.02281-0.531709 0.071015-0.845703 0.146484-1.596363 0.38367-4.108627 1.611664-6.302735 3.082032-1.116692 0.748346-1.189782 0.845065-1.189453 1.603515 2.64e-4 0.541904 0.04296 0.721957 0.316406 1.289063 0.757254 1.57048 2.450262 3.175888 3.898438 3.695312 0.642446 0.230429 1.465099 0.222949 1.769531-0.015625 0.764527-0.599135 3.010387-4.610661 3.666016-6.546875 0.386422-1.141186 0.461996-2.286934 0.179687-2.734375-0.19811-0.313989-0.515142-0.488763-0.978516-0.527344zm-12.851562 1.992188a13 13 0 0 0 -13 13 13 13 0 0 0 13 13 13 13 0 0 0 13 -13 13 13 0 0 0 -1.332031 -5.712891c-0.015677 0.023676-0.033277 0.058799-0.048828 0.082032-0.349626 0.522297-0.587224 0.897119-1.017579 1.234375-0.492499 0.385954-0.921827 0.392584-1.367187 0.396484-0.44536 0.003883-0.905419-0.064442-1.357422-0.226562-1.831185-0.656801-3.56625-2.345668-4.460937-4.201172-0.291262-0.604054-0.415726-1.127239-0.416016-1.722657-1.79e-4 -0.411543 0.045917-0.961472 0.373047-1.402343 0.228889-0.308473 0.505764-0.51592 0.828125-0.736328a13 13 0 0 0 -4.201172 -0.710938z" style="fill:#ffffff"/>
 <path d="m36.535156 3.9980469c-0.260504 0.0050063-0.506589 0.0217069-0.740234 0.0429687-0.607261 0.0552673-1.164465 0.1571721-1.705078 0.2871094-1.994035 0.4792469-3.752374 1.3274417-5.484375 2.3046875-1.502834-0.3792693-3.033478-0.6294969-4.591797-0.6328125-0.01042-2.71e-5 -0.02083-2.71e-5 -0.03125 0-1.555581 0.00453-3.085864 0.253667-4.585938 0.6328125-1.733967-0.9777801-3.493707-1.8257808-5.486328-2.3046875-0.540613-0.1299373-1.097817-0.2318421-1.705078-0.2871094-0.440523-0.0400877-0.943392-0.0626136-1.554687-0.0117187-1.7310154 0.1441261-4.3512718 1.3973662-5.5546879 3.3046875-1.1830411 1.8750416-1.2127664 3.0091396-1.1367187 3.9570316 0.0699041-0.76343 0.3368518-1.6892956 1.1367187-2.9570316 1.2034161-1.9073213 3.8236725-3.1605614 5.5546879-3.3046875 0.611295-0.0508949 1.114164-0.028369 1.554687 0.0117187 0.607261 0.0552673 1.164465 0.1571721 1.705078 0.2871094 1.992621 0.4789067 3.752361 1.3269074 5.486328 2.3046875 1.500074-0.3791455 3.030357-0.6282825 4.585938-0.6328125 0.01042-2.71e-5 0.02083-2.71e-5 0.03125 0 1.558319 0.0033156 3.088963 0.2535432 4.591797 0.6328125 1.732001-0.9772458 3.49034-1.8254406 5.484375-2.3046875 0.540613-0.1299373 1.097817-0.2318421 1.705078-0.2871094 0.934582-0.0850474 2.083076-0.0907864 3.453125 0.3886719s2.85077 1.6276717 3.65625 2.9042969c0.799205 1.2666865 1.068488 2.1920016 1.138672 2.9550776 0.075822-0.94746 0.043463-2.0814725-1.138672-3.9550776-0.80548-1.2766252-2.286201-2.4248386-3.65625-2.9042969-1.027537-0.3595937-1.931379-0.4466595-2.712891-0.4316406zm-30.511718 15.326172c-0.603898 1.830567-1.0185355 3.714147-1.0234375 5.660156-6.8e-6 0.0052-6.8e-6 0.010415 0 0.015625 0 0.174551 0.0225635 0.344093 0.0273438 0.517578 0.0697685-1.992025 0.5254591-3.924433 1.1894531-5.794922-0.0680272-0.12871-0.1266078-0.26804-0.1933594-0.398437zm35.955078 0c-0.06648 0.129895-0.12559 0.268274-0.19336 0.396484 0.663649 1.871481 1.118545 3.805797 1.1875 5.798828 0.004816-0.174133 0.027344-0.344323 0.027344-0.519531v-0.011719c-0.003875-1.946821-0.418082-3.832294-1.021484-5.664062z" style="fill:#ffffff;opacity:.2"/>
</svg>

<svg xmlns="http://www.w3.org/2000/svg" width="48" height="48" version="1.1" viewBox="0 0 48 48">
 <path style="opacity:0.2" d="M 10.650391,5.0292919 C 8.919376,5.173418 6.2995254,6.4266581 5.0961093,8.3339794 3.5927489,10.716706 3.9479981,11.911942 4.0218907,13.035151 c 0.073892,1.12321 0.2933837,2.122389 0.6441249,3.158203 0.4289305,1.266723 0.9684724,2.427544 1.5507813,3.529297 C 5.5007504,21.739773 5.0054379,23.825601 5,25.98437 c -6.8e-6,0.0052 -6.8e-6,0.01042 0,0.01563 0,10.422342 8.577658,19 19,19 10.422342,0 19,-8.577658 19,-19 v -0.01172 c -0.0043,-2.160179 -0.499004,-4.248918 -1.214844,-6.267578 0.581875,-1.100818 1.120032,-2.261018 1.548828,-3.527344 0.350743,-1.035816 0.570639,-2.034993 0.644532,-3.158203 0.07389,-1.12321 0.429141,-2.318446 -1.074219,-4.7011716 C 42.098817,7.0573582 40.618096,5.9091408 39.248047,5.4296825 37.877998,4.9502242 36.729504,4.9559632 35.794922,5.0410106 35.187661,5.0962779 34.630457,5.1981827 34.089844,5.32812 32.095809,5.8073669 30.33747,6.6555617 28.605469,7.6328075 27.102635,7.2535382 25.571991,7.0033106 24.013672,6.999995 c -0.01042,-2.71e-5 -0.02083,-2.71e-5 -0.03125,0 -1.555581,0.00453 -3.085864,0.253667 -4.585938,0.6328125 C 17.662517,6.6550274 15.902777,5.8070267 13.910156,5.32812 13.369543,5.1981827 12.812339,5.0962779 12.205078,5.0410106 11.764555,5.0009229 11.261686,4.978397 10.650391,5.0292919 Z"/>
 <path style="fill:#fb5140" d="M 10.650391,4.0292969 C 8.919376,4.173423 6.2995254,5.4266631 5.0961093,7.3339844 3.5927489,9.7167109 3.9479981,10.911947 4.0218907,12.035156 c 0.073892,1.12321 0.2933837,2.122389 0.6441249,3.158203 0.4289305,1.266723 0.9684724,2.427544 1.5507813,3.529297 C 5.5007504,20.739778 5.0054379,22.825606 5,24.984375 c -6.8e-6,0.0052 -6.8e-6,0.01042 0,0.01563 0,10.422342 8.577658,19 19,19 10.422342,0 19,-8.577658 19,-19 v -0.01172 c -0.0043,-2.160179 -0.499004,-4.248918 -1.214844,-6.267578 0.581875,-1.100818 1.120032,-2.261018 1.548828,-3.527344 0.350743,-1.035816 0.570639,-2.034993 0.644532,-3.158203 0.07389,-1.12321 0.429141,-2.3184464 -1.074219,-4.7011716 C 42.098817,6.0573632 40.618096,4.9091458 39.248047,4.4296875 37.877998,3.9502292 36.729504,3.9559682 35.794922,4.0410156 35.187661,4.0962829 34.630457,4.1981877 34.089844,4.328125 32.095809,4.8073719 30.33747,5.6555667 28.605469,6.6328125 27.102635,6.2535432 25.571991,6.0033156 24.013672,6 c -0.01042,-2.71e-5 -0.02083,-2.71e-5 -0.03125,0 C 22.426841,6.00453 20.896558,6.253667 19.396484,6.6328125 17.662517,5.6550324 15.902777,4.8070317 13.910156,4.328125 13.369543,4.1981877 12.812339,4.0962829 12.205078,4.0410156 11.764555,4.0009279 11.261686,3.978402 10.650391,4.0292969 Z"/>
 <path style="opacity:0.2" d="m 11.148438,11.007807 c -0.463374,0.03858 -0.780406,0.213355 -0.978516,0.527344 -0.2823091,0.447441 -0.2067341,1.593189 0.179687,2.734375 0.353389,1.043634 1.162443,2.660828 1.958985,4.050781 1.335295,-2.026121 3.182008,-3.680085 5.355468,-4.789062 -1.881054,-1.137556 -3.831288,-2.050699 -5.15625,-2.369141 -0.313993,-0.07547 -0.595073,-0.123674 -0.845703,-0.146484 -0.187973,-0.01711 -0.359215,-0.02067 -0.513671,-0.0078 z m 25.703124,0 c -0.154457,-0.01286 -0.325698,-0.0093 -0.513671,0.0078 -0.25063,0.02281 -0.531709,0.07101 -0.845703,0.146484 -1.596363,0.38367 -4.108627,1.611664 -6.302735,3.082032 -1.116692,0.748346 -1.189782,0.845065 -1.189453,1.603515 2.64e-4,0.541904 0.04296,0.721957 0.316406,1.289063 0.757254,1.57048 2.450262,3.175888 3.898438,3.695312 0.642446,0.230429 1.465099,0.222949 1.769531,-0.01563 0.764527,-0.599135 3.010387,-4.610661 3.666016,-6.546875 0.386422,-1.141186 0.461996,-2.286934 0.179687,-2.734375 -0.19811,-0.313989 -0.515142,-0.488763 -0.978516,-0.527344 z M 24,12.999995 a 13,13 0 0 0 -13,13 13,13 0 0 0 13,13 13,13 0 0 0 13,-13 13,13 0 0 0 -1.332031,-5.712891 c -0.01568,0.02368 -0.03328,0.0588 -0.04883,0.08203 -0.349626,0.522297 -0.587224,0.897119 -1.017579,1.234375 -0.492499,0.385954 -0.921827,0.392584 -1.367187,0.396484 -0.44536,0.0039 -0.905419,-0.06444 -1.357422,-0.226562 -1.831185,-0.656801 -3.56625,-2.345668 -4.460937,-4.201172 C 27.124754,16.968207 27.00029,16.445022 27,15.849604 c -1.79e-4,-0.411543 0.04592,-0.961472 0.373047,-1.402343 0.228889,-0.308473 0.505764,-0.51592 0.828125,-0.736328 A 13,13 0 0 0 24,12.999995 Z"/>
 <path style="fill:#ffffff" d="M 11.148438 10.007812 C 10.685064 10.046394 10.368032 10.221167 10.169922 10.535156 C 9.8876129 10.982597 9.9631879 12.128345 10.349609 13.269531 C 10.702998 14.313165 11.512052 15.930359 12.308594 17.320312 C 13.643889 15.294191 15.490602 13.640227 17.664062 12.53125 C 15.783008 11.393694 13.832774 10.480551 12.507812 10.162109 C 12.193819 10.08664 11.912739 10.038435 11.662109 10.015625 C 11.474136 9.9985194 11.302894 9.9949528 11.148438 10.007812 z M 36.851562 10.007812 C 36.697105 9.9949523 36.525864 9.9985194 36.337891 10.015625 C 36.087261 10.038435 35.806182 10.08664 35.492188 10.162109 C 33.895825 10.545779 31.383561 11.773773 29.189453 13.244141 C 28.072761 13.992487 27.999671 14.089206 28 14.847656 C 28.000264 15.38956 28.04296 15.569613 28.316406 16.136719 C 29.07366 17.707199 30.766668 19.312607 32.214844 19.832031 C 32.85729 20.06246 33.679943 20.05498 33.984375 19.816406 C 34.748902 19.217271 36.994762 15.205745 37.650391 13.269531 C 38.036813 12.128345 38.112387 10.982597 37.830078 10.535156 C 37.631968 10.221167 37.314936 10.046393 36.851562 10.007812 z M 24 12 A 13 13 0 0 0 11 25 A 13 13 0 0 0 24 38 A 13 13 0 0 0 37 25 A 13 13 0 0 0 35.667969 19.287109 C 35.652292 19.310785 35.634692 19.345908 35.619141 19.369141 C 35.269515 19.891438 35.031917 20.26626 34.601562 20.603516 C 34.109063 20.98947 33.679735 20.9961 33.234375 21 C 32.789015 21.003883 32.328956 20.935558 31.876953 20.773438 C 30.045768 20.116637 28.310703 18.42777 27.416016 16.572266 C 27.124754 15.968212 27.00029 15.445027 27 14.849609 C 26.999821 14.438066 27.045917 13.888137 27.373047 13.447266 C 27.601936 13.138793 27.878811 12.931346 28.201172 12.710938 A 13 13 0 0 0 24 12 z"/>
 <path style="opacity:0.2;fill:#ffffff" d="M 36.535156 3.9980469 C 36.274652 4.0030532 36.028567 4.0197538 35.794922 4.0410156 C 35.187661 4.0962829 34.630457 4.1981877 34.089844 4.328125 C 32.095809 4.8073719 30.33747 5.6555667 28.605469 6.6328125 C 27.102635 6.2535432 25.571991 6.0033156 24.013672 6 C 24.003252 5.9999729 23.992842 5.9999729 23.982422 6 C 22.426841 6.00453 20.896558 6.253667 19.396484 6.6328125 C 17.662517 5.6550324 15.902777 4.8070317 13.910156 4.328125 C 13.369543 4.1981877 12.812339 4.0962829 12.205078 4.0410156 C 11.764555 4.0009279 11.261686 3.978402 10.650391 4.0292969 C 8.9193756 4.173423 6.2991192 5.4266631 5.0957031 7.3339844 C 3.912662 9.209026 3.8829367 10.343124 3.9589844 11.291016 C 4.0288885 10.527586 4.2958362 9.6017204 5.0957031 8.3339844 C 6.2991192 6.4266631 8.9193756 5.173423 10.650391 5.0292969 C 11.261686 4.978402 11.764555 5.0009279 12.205078 5.0410156 C 12.812339 5.0962829 13.369543 5.1981877 13.910156 5.328125 C 15.902777 5.8070317 17.662517 6.6550324 19.396484 7.6328125 C 20.896558 7.253667 22.426841 7.00453 23.982422 7 C 23.992842 6.9999729 24.003252 6.9999729 24.013672 7 C 25.571991 7.0033156 27.102635 7.2535432 28.605469 7.6328125 C 30.33747 6.6555667 32.095809 5.8073719 34.089844 5.328125 C 34.630457 5.1981877 35.187661 5.0962829 35.794922 5.0410156 C 36.729504 4.9559682 37.877998 4.9502292 39.248047 5.4296875 C 40.618096 5.9091458 42.098817 7.0573592 42.904297 8.3339844 C 43.703502 9.6006709 43.972785 10.525986 44.042969 11.289062 C 44.118791 10.341602 44.086432 9.2075895 42.904297 7.3339844 C 42.098817 6.0573592 40.618096 4.9091458 39.248047 4.4296875 C 38.22051 4.0700938 37.316668 3.983028 36.535156 3.9980469 z M 6.0234375 19.324219 C 5.4195395 21.154786 5.004902 23.038366 5 24.984375 C 4.9999932 24.989575 4.9999932 24.99479 5 25 C 5 25.174551 5.0225635 25.344093 5.0273438 25.517578 C 5.0971123 23.525553 5.5528029 21.593145 6.2167969 19.722656 C 6.1487697 19.593946 6.0901891 19.454616 6.0234375 19.324219 z M 41.978516 19.324219 C 41.912036 19.454114 41.852926 19.592493 41.785156 19.720703 C 42.448805 21.592184 42.903701 23.5265 42.972656 25.519531 C 42.977472 25.345398 43 25.175208 43 25 L 43 24.988281 C 42.996125 23.04146 42.581918 21.155987 41.978516 19.324219 z"/>
</svg>
